X: 899
T: Smith's Reel
C:Arr. Pete Martin
B: jims roots
M:C
L:1/8
Q: 1/4=100
K:D
V:1 
fg | "D"afbf afde | "G"fafd edBd | "D"AAAd Bcde | "A" fedf e2fg |
"D"afbf afde | "G"fafd edBd | "A"ABAd Bcde | fdec "D"d2fg ||
"D"afdf bafe | "G"defd edBd | "D"ABAd Bcde | "A"faf=f ed^fg |
"D"abaf bafe | "G"defd edBd | "A"AFAd Bcde | fdec "D"d2dc ||
"Bm"B[BF][BF][BF] [B2F]Bc | "G"dBAG FEDB, | "D"(3A,B,C DE FABd | "A"fedf edcd |
"Bm"B[B2F][BF] [B2F]Bc | "G"dBAG FEDB, | "A"(3A,B,C DE FABd | fdec "D"d2dc ||
"Bm"BFBd BFBc | "G"defd edBd | "D"AFAd Bcde | "A"fedf edcd |
"Bm"BFBd BFBc | "G"defd edBd | "A"AFAd Bcde | fdec "D"d2FA ||
|:"D"A2A2 A2d2 | "G"BABd BAFD | "D"FAAB A2fa | "A"fedf edBA |"D"FAA2 A2d2 |
"G"BABd BAFD | "A"FAAB A2fa |[1 fdec "D"d2FA :|[2 fdec "D"d4|]
% abcbook-tune_id 6298c28742e300104390c504


% abcbook-boost 0
% abcbook-tablature 
% abcbook-transpose 
% abcbook-lastupdated 1654178440522
% abcbook-soundfonts 
% abcbook-repeats 1


